assets/svgs/icon-location-filled.svg

<svg width="32" height="32" viewBox="0 0 32 32" fill="none" xmlns="http://www.w3.org/2000/svg" class="svg__icon-location-filled">
<path fill-rule="evenodd" clip-rule="evenodd" d="M17.2548 27.5288C22.3816 23.342 26.66 19.8481 26.66 14.4C26.66 8.51263 21.8873 3.73999 16 3.73999C10.1126 3.73999 5.33997 8.51263 5.33997 14.4C5.33997 19.8481 9.61829 23.342 14.7451 27.5288C14.9348 27.6837 15.1257 27.8396 15.3176 27.9966C15.7141 28.321 16.2859 28.321 16.6824 27.9966C16.8742 27.8396 17.0651 27.6837 17.2548 27.5288ZM15.9996 18.0645C17.6177 18.0645 18.9295 16.7527 18.9295 15.1345C18.9295 13.5163 17.6177 12.2045 15.9996 12.2045C14.3814 12.2045 13.0696 13.5163 13.0696 15.1345C13.0696 16.7527 14.3814 18.0645 15.9996 18.0645Z" fill="#0B6AB7" class="svg__fill--primary-blue-03"/>
</svg>

<svg width="32" height="32" viewBox="0 0 32 32" fill="none" xmlns="http://www.w3.org/2000/svg" class="svg__icon-location-filled">
  <path fill-rule="evenodd" clip-rule="evenodd"
    d="M17.2549 27.5288C22.3817 23.342 26.66 19.8481 26.66 14.4c0-5.88737-4.7726-10.66001-10.66-10.66001S5.34 8.51263 5.34 14.4c0 5.4481 4.27832 8.942 9.4051 13.1288.1897.1549.3806.3108.5725.4678.3965.3244.9683.3244 1.3648 0 .1919-.157.3827-.3129.5725-.4678Zm-1.2553-9.4643c1.6182 0 2.93-1.3118 2.93-2.93s-1.3118-2.93-2.93-2.93-2.93 1.3118-2.93 2.93 1.3118 2.93 2.93 2.93Z"
    fill="#0B6AB7" class="svg__fill--primary-blue-03" />
</svg>
